assets/icons/map.svg

<!-- Generated by IcoMoon.io -->
<svg version="1.1" xmlns="http://www.w3.org/2000/svg" width="41" height="32" viewBox="0 0 41 32">
<title>map</title>
<path d="M9.239 31.927c0.009 0.006 0.021 0.003 0.030 0.009 0.073 0.037 0.149 0.064 0.231 0.064 0.044 0 0.088-0.006 0.132-0.018l10.868-2.966 10.868 2.966c0.044 0.012 0.088 0.018 0.132 0.018 0.082 0 0.158-0.027 0.23-0.065 0.010-0.005 0.021-0.003 0.030-0.009l9-5.5c0.191-0.117 0.281-0.348 0.22-0.563l-4.984-17.5c-0.041-0.147-0.148-0.267-0.29-0.326-0.142-0.057-0.301-0.048-0.436 0.026l-4.962 2.784c-0.24 0.135-0.326 0.44-0.191 0.681s0.439 0.327 0.682 0.191l4.409-2.475 4.707 16.526-8.015 4.899-1.904-15.231c-0.034-0.275-0.293-0.466-0.559-0.434-0.273 0.034-0.468 0.284-0.434 0.558l1.907 15.259-9.91-2.705v-2.73c0-0.276-0.224-0.5-0.5-0.5s-0.5 0.224-0.5 0.5v2.73l-9.911 2.705 1.907-15.259c0.034-0.274-0.16-0.524-0.434-0.558-0.272-0.032-0.524 0.159-0.559 0.434l-1.903 15.231-8.015-4.898 4.707-16.525 4.409 2.475c0.242 0.134 0.546 0.049 0.682-0.191 0.135-0.241 0.049-0.545-0.191-0.681l-4.963-2.785c-0.133-0.075-0.292-0.085-0.435-0.026s-0.249 0.178-0.29 0.326l-4.984 17.5c-0.062 0.216 0.028 0.446 0.22 0.563l8.999 5.5zM20.161 23.368c0.096 0.088 0.217 0.132 0.339 0.132 0.12 0 0.24-0.043 0.336-0.129 0.333-0.303 8.164-7.489 8.164-14.871 0-4.767-3.733-8.5-8.5-8.5s-8.5 3.733-8.5 8.5c0 7.254 7.828 14.56 8.161 14.868zM20.5 1c4.275 0 7.5 3.224 7.5 7.5 0 6.097-5.993 12.337-7.497 13.807-1.501-1.487-7.503-7.809-7.503-13.807 0-4.276 3.225-7.5 7.5-7.5zM25 8.5c0-2.481-2.019-4.5-4.5-4.5s-4.5 2.019-4.5 4.5 2.019 4.5 4.5 4.5 4.5-2.019 4.5-4.5zM20.5 12c-1.93 0-3.5-1.57-3.5-3.5s1.57-3.5 3.5-3.5 3.5 1.57 3.5 3.5-1.57 3.5-3.5 3.5z"></path>
</svg>

<svg xmlns="http://www.w3.org/2000/svg" width="41" height="32"><path d="M9.239 31.927c.009.006.021.003.03.009A.51.51 0 009.5 32a.5.5 0 00.132-.018L20.5 29.016l10.868 2.966A.5.5 0 0031.5 32a.492.492 0 00.23-.065c.01-.005.021-.003.03-.009l9-5.5a.501.501 0 00.22-.563l-4.984-17.5a.499.499 0 00-.726-.3l-4.962 2.784a.501.501 0 00.491.872l4.409-2.475 4.707 16.526-8.015 4.899-1.904-15.231a.5.5 0 00-.993.124l1.907 15.259L21 28.116v-2.73a.5.5 0 00-1 0v2.73l-9.911 2.705 1.907-15.259a.5.5 0 10-.993-.124L9.1 30.669l-8.015-4.898L5.792 9.246l4.409 2.475a.501.501 0 00.491-.872L5.729 8.064a.496.496 0 00-.725.3L.02 25.864a.498.498 0 00.22.563l8.999 5.5zm10.922-8.559a.5.5 0 00.675.003C21.169 23.068 29 15.882 29 8.5 29 3.733 25.267 0 20.5 0S12 3.733 12 8.5c0 7.254 7.828 14.56 8.161 14.868zM20.5 1C24.775 1 28 4.224 28 8.5c0 6.097-5.993 12.337-7.497 13.807C19.002 20.82 13 14.498 13 8.5 13 4.224 16.225 1 20.5 1zM25 8.5C25 6.019 22.981 4 20.5 4S16 6.019 16 8.5s2.019 4.5 4.5 4.5S25 10.981 25 8.5zM20.5 12c-1.93 0-3.5-1.57-3.5-3.5S18.57 5 20.5 5 24 6.57 24 8.5 22.43 12 20.5 12z"/></svg>
